X:1
T:All Aboard for Glory
T:All Aboard for Glory
T:J. D. Eller
T:J. D. Eller, 1922
T:Public Domain Courtesy of the Cyber Hymnal™
T:Public Domain Courtesy of the Cyber Hymnal™
T:Public Domain Courtesy of the Cyber Hymnal™
C:J. D. Eller
Z:Public Domain
Z:Courtesy of the Cyber Hymnal™
%%score ( 1 2 ) ( 3 4 )
L:1/8
Q:1/4=83
M:4/4
K:Ab
V:1 treble 
V:2 treble 
V:3 bass 
V:4 bass 
V:1
 [CE][DF] | (3[EA][EA][EA] [EA][EA] [EA][DF][CE][DF] | (3[EA][EA][EA] [FA][DF] [CE]2 [EA][EB] | %3
w: 1.~Has- ten|down to the Gos- pel sta- tion, Draw- ing|near is the Heav’n- bound train, It is|
w: 2.~There’s no|time to de- lay, my bro- ther, Get your|tick- et, and be on time, Soon the|
w: 3.~Come and|start on the way to glo- ry, There to|dwell in the land di- vine, With our|
 (3[Ac][Ac][Ac] [Ac][Ac] [Ac][GB][FA][EA] | (3[=DB][DB][DB] [Dc][Dc] !fermata![EB]2 [Ec][_DB] | %5
w: now on the way to glo- ry, Ne- ver-|more to re- turn a- gain; Bright the|
w: pow- er- ful Gos- pel en- gine Will be|off for the heav’n- ly clime; Ask the|
w: Sav- ior, the Great Con- duc- tor, At the|end of the glo- ry line; There to|
 (3[CA][CA][CA] [Ec][EA] [DF][CE][CE][DF] | (3[EA][EA][EA] [FA][DF] [CE]2 [Ec][Ed] | %7
w: head- light of truth is gleam- ing, It’s on|time, and will not de- lay; Now it’s|
w: Sav- ior for His pro- tec- tion, He is|sure to be true and kind, If you|
w: en- ter the ho- ly ci- ty, Where we’ll|meet our be- loved and own, Join with|
 (3[Ae][Ae][Ae] [Ae][Ac] [EB][EA][EA][FB] | (3[Ec][Ec][Ec] [EB][DB] !fermata![CA]2 || %9
w: slow- ing up at the sta- tion, I can|hear the con- duc- tor say:|
w: lin- ger in doubt and fol- ly, You will|sure- ly be left be- hind.|
w: them and the ho- ly an- gels, Sing- ing|prais- es a- round the throne.|
"^Refrain" AB | c4- [Ec][DB] (3[CA][CA][CA] | [DF]E3/2- E4 AB | c4- [Ac][Ae][Ac]A | B6 cB | %14
w: |||||
w: “All a-|board, we’re go- ing to glo-|* ry, * All a-|board, come, join our band;|All a- board,|
w: |||||
 A4- [EA][DF] (3[CE][CE][CE] | [DF] ([FA-] A4) Ac | e4- [Ge][Gc][GB][GB] | A6 |] %18
w: ||||
w: come, swell the sweet sto- ry,|* We * are bound|for glo- ry land!” *||
w: ||||
V:2
 x2 | x8 | x8 | x8 | x8 | x8 | x8 | x8 | x6 || x2 | E2 E2 x4 | x (CC(3CCCC) x5/2 | (A2 A2 x A) x2 | %13
 (GGGG G2) x2 | E2 E2 x4 | x2 (3(FFF EE) x2 | A2 A2 x4 | (AFEF E2) |] %18
V:3
 [A,,A,][A,,A,] | (3[A,,C][A,,C][A,,C] [A,,C][A,,C] [A,,C][A,,A,][A,,A,][A,,A,] | %2
w: ~ ~|~ ~ ~ ~ ~ ~ ~ ~ ~|
 (3[A,,C][A,,C][A,,C] [D,D][D,A,] [A,,A,]2 [A,C][A,D] | %3
w: ~ ~ ~ ~ ~ ~ ~ ~|
 (3[A,E][A,E][A,E] [A,E][A,E] [A,E][E,D][F,C][F,C] | %4
w: ~ ~ ~ ~ ~ ~ ~ ~ ~|
 (3[B,,B,][B,,A,][B,,F,] [B,,A,][B,,A,] !fermata![E,G,]2 [A,,A,][A,,A,] | %5
w: ~ ~ ~ ~ ~ ~ ~ ~|
 (3[A,,E,][A,,E,][A,,E,] [A,,A,][A,,C] [A,,A,][A,,A,][A,,A,][A,,A,] | %6
w: ~ ~ ~ ~ ~ ~ ~ ~ ~|
 (3[A,,C][A,,C][A,,C] [D,D][D,A,] [A,,A,]2 A,[A,B,] | %7
w: ~ ~ ~ ~ ~ ~ ~ ~|
 (3[A,C][A,C][A,C] [A,C][A,E] [A,D][A,C][C,A,][C,A,] | %8
w: ~ ~ ~ ~ ~ ~ ~ ~ ~|
 (3[E,A,][E,A,][E,A,] [E,G,][E,G,] !fermata![A,,A,]2 || z2 | %10
w: ~ ~ ~ ~ ~ ~||
 [A,,A,]2 [A,,A,]2 [A,,A,][A,,A,] (3[A,,E,][A,,E,][A,,E,] | %11
w: “All a- board,” ~ ~ ~ ~|
 [A,,A,][A,,A,][A,,A,](3[A,,A,][A,,A,][A,,A,][A,,A,] z2 x/ | [A,E]2 [A,E]2 [A,E][A,C][A,E][F,=D] | %13
w: ~ ~ go- ing to glo- ry,|All a- board, ~ ~ ~|
 [E,E][E,E][E,E][E,E] [E,E]2 z2 | [A,,C]2 [A,,C]2 [A,,C][A,,A,] (3[A,,A,][A,,A,][A,,A,] | %15
w: come, join our band; All|a- board, ~ ~ ~ ~ ~|
 [D,A,][D,D] (3[D,D][D,D][D,D] [A,,C][A,,C] z2 | [A,C]2 [A,C]2 [E,B,][E,E][E,E][E,D] | CDC=B, C2 |] %18
w: ~ ~ swell the sweet sto- ry,|We are bound ~ ~ ~|~ for glo- ry land!”|
V:4
 x2 | x8 | x8 | x8 | x8 | x8 | x6 A, x | x8 | x6 || x2 | x8 | x17/2 | x8 | x8 | x8 | x8 | x8 | %17
 A,,6 |] %18

